X:3
T:Queen of Hearts, The
C:John Kirkpatrick arr. Chris Walshaw
M:6/8
R:jig
K:D
A|:d3 c3|B3 A3|GFE F2D|EFG ABc|\
d2A c2A|BAG A2F|GFE FED|[1 EFE D2A:|[2 EFE D3|]
DEF FGA|ADE FED|EFE G2B|BEF GFE|\
ADE FGA|BEF G2E|FED G2F|[1 EFE D3:|[2 EFG ABc|]

